X: 1
T: Launch The Boat
L: 1/8
M: 4/4
K: D
|: "D"defd AGFA | "Em"BE ~E2 "A"BAFA | "D"defd AGFD | "Em"EDEF "G"GA"A"Bc |
   "D"defd AGFA | "Em"BE ~E2 "A"BAFA | "D"A2 FA DAFD | "A"EDCD "D"ED D2 :|
|: "D"fd ~d2 fdad | fadf a2 gf | "Em"eggf g2 gf | efga "G"bg"A"ag |
   "D"fd ~d2 edBc | defd AGFA | A2 FA DAFD | "A"EDCD "D"ED D2 :|

